X:1
T:Wiegenlied No 281
T:Wiegenlied No 281
T:K 350 Mozarts Lullaby
T:Bernhard Flies
T:F. W. Gotter
C:F. W. Getter
%%score { 1 | 2 }
L:1/8
Q:1/4=80
M:6/8
K:F
V:1 treble nm="Piano" snm="Pno."
V:2 bass 
V:1
"^Andante" [FA]B[FA] [EG][DF][EG] | F2 z z2 F | [DF][FB][FB] [DB][Fc][Fd] | [Fc]2 z z2 z | %4
 [EG][^D^F][EG] [EG][DF][EG] | [GB]3- [GB]2 z | [FA][FA][FA] [GB][FA][GB] | [Ac]3- [Ac]2 z | %8
 [FBd][FBd][FBd] [FBd][F^Bc][FBd] | [Bdf]3- [Bdf]2 z | [FAc][FAc][FAc] [FAc][F^G=B][FAc] | %11
 [Acf]3- [Acf]2 z | [GB][Ac][GB] [FA][GB][FA] | [EG]3- [EG]2 z | [FA][GB][FA] [EG][EA][EG] | %15
 [A,CF]3- [A,CF]2 z |] %16
V:2
 [F,C]D[F,C] [C,B,]2 [C,B,] | [F,A,]CC [F,A,]CB, | [F,B,]DD [F,B,]DD | [F,A,]CC [F,A,]CC | %4
 C,2 C C,2 C | C,E,G, CG,C, | F,2 C F,2 C | F,A,C FCF, | B,,B,B, B,,B,B, | B,,B,B, B,,B,B, | %10
 F,,F,F, F,,F,F, | F,,F,F, F,,F,F, | [E,C]2 [E,C] [F,C]2 [F,C] | C,E,G, CB,G, | %14
 [F,C]2 [F,C] [C,B,]2 [C,B,] | F,C,A,, F,,2 z |] %16

